X: 0
T: Brocklesby
Z: Charlotte Alington Barnard, 1868
Z: Public Domain
Z: Courtesy of the Cyber Hymnal (http://www.cyberhymnal.org)
L: 1/4
M: 4/4
Q: 1/4=115
V: P1_1 name="Staff 1"
V: P1_2
%%MIDI program 1 0
V: P2_1 name="Brocklesby, 87.87"
V: P2_2
%%MIDI program 2 91
K: G
% Extracting voice 1 from part P1
[V: P1_1]  [GB] [FA] [EG] D | | | | [DB] [FA] [EG] D | | [B,G] [CG] [^CG] (F/G/) ||]
% Extracting voice 2 from part P1
[V: P1_2]  x3  D | | | | x3  D | | x3  C ||]
% Extracting voice 1 from part P2
[V: P2_1]  | | E, [E,G,] [B,,G,] [G,,G,] | | G, [D,C] [E,B,] [B,,G,] | | ||]
% Extracting voice 2 from part P2
[V: P2_2]  | | E, | | G, | | ||]

